X:202
T:Rising Sun, The
R:reel
D:The Magic Square: Traditional Irish Music from Boston
Z:transcribed by Dave Marshall
M:C|
K:D
|: d3B ABdA | ~f3d edBA | F2dB A~F3 | EGFD EDD2 :| 
| d2fd Adfd | egfd edBc | d2fd Adfd | egfe d2Bc |
d2fd Adfd | egfd edBc | defg afba | ageg f2ec |
